X: 7
T: Sixpenny Money
Z: UPipes & harp
S: https://thesession.org/tunes/387#setting48370
R: jig
M: 6/8
L: 1/8
K: Dmaj
AG|:FAA FAA|{c} BAG FEF|DFA {c}AFA|dfd fed|
{c}AFA {c}AFA|{c}BAG FEF|DFA {c}AFA|1 dfd e2 A:|2 dfd e2 d||
|:fdf g3|afd ecA|fef gfg|{b}afd ~e2d|
fdf g3|{b}afd ecA|{c}AFA DFA|1 dgf e2 d:|2 dfd e2 A||

